**kern	**kern	**dynam
*part1	*part1	*part1
*staff2	*staff1	*
*I"Piano	*	*
*clefF4	*clefG2	*
*k[f#c#g#d#]	*k[f#c#g#d#]	*
=1	=1	=1
4.EE 4.BB	4.c# 4.e	.
4.EE 4.BB	4.B 4.dn	.
=	=	=
4.EE 4.BB	4.A) 4.c#	.
4.EE 4.BB	(4.c#	.
=	=	=
4.EE 4.BB	4.a 4.cc#	.
4.EE 4.BB	4.g# 4.b	.
=	=	=
!	!LO:TX:b:i:t=suivez	!
[2.EE [2.BB	[2.f#) [2.a	.
=	=	=
8EE] 8BB]	8f#] 8a]	.
8r	8r	.
8r	8r	.
4r	4r	.
8r	8r	.
=	=	=
!	!LO:TX:a:B:t=Tempo I	!
(8CnL	(4.gn 4.ccn 4.ee	pp
8Gn	.	.
8cnJ	.	.
8e)	8ggn`)	.
8r	8r	.
8r	8r	.
=	=	=
(8CnL	(4.gn 4.b 4.dd#X	.
8Gn	.	.
8BJ	.	.
8d#X)	8ggn`)	.
8r	8r	.
8r	8r	.
=	=	=
*-	*-	*-
!!!system-decoration: {(s1,s2)}
